X: 7
T: No_104_I_Draw_the_Rain.krn
N: Derived from No_104_I_Draw_the_Rain.krn
%%abc-version 2.0
%%abcx-abcm2ps-target-version 5.9.1 (29 Sep 2008)
%%abc-creator hum2abc beta
%%abcx-conversion-date 2019/03/15 08:37:56
%%humdrum-veritas 2673398041
%%humdrum-veritas-data 653346262
%%linebreak <none>
%%barnumbers 0
L: 1/4
M: 2/4
K: Eb clef=bass
[K:clef=bass][M:2/4]C2 | 
CB,/G,/ | 
B,2 | 
G,3/F,/ | 
B,2- | 
B,F, | 
F,E, | 
C,/B,,/ B,,/ z/ | 
C,2 | 
E,E,/C,/ | 
E,C, | 
C,/B,,/B,, | 
B,,2 | 
B,,2 | 
F,2 | 
F,3/E,/ | 
F,E, | 
C,2 | 
C,E, | 
E,E,/C,/ | 
E,C, | 
B,,B,, | 
B,,2 |]  



